X: 36523
T: Session In The Spa Wells
R: jig
M: 6/8
K: Fmajor
C:Holly Geraghty
F2A GFD|CDF Acd|fag gfd|cdf dcA|
FAA GFD|CDF Acd|fag gfd|1 cAG FCD:|2 cAG FGA||
c2f dcd|fag afd|dcA F2f|dcA AGG|
FGA ccf|agf fdc|d2d cAG|AFE FGA||
c2f dcd|fag afd|dcA F2f|dcA GFD|
CDF Acf|dcd f2g|agf dfd cAG FCD||

